static/img/kroki/f53267e7cdeecc07ca82ccd0dd35520a.svg

<?xml version="1.0" encoding="us-ascii" standalone="no"?><svg xmlns="http://www.w3.org/2000/svg" xmlns:xlink="http://www.w3.org/1999/xlink" contentStyleType="text/css" height="374px" preserveAspectRatio="none" style="width:429px;height:374px;" version="1.1" viewBox="0 0 429 374" width="429px" zoomAndPan="magnify"><defs/><g><!--class digitalocean_load_balancer--><g id="elem_digitalocean_load_balancer"><rect codeLine="23" fill="#3D176E" height="39.7891" id="digitalocean_load_balancer" rx="2.5" ry="2.5" style="stroke:#000D19;stroke-width:0.5;" width="267" x="97" y="328.58"/><ellipse cx="112" cy="348.4745" fill="#ADD1B2" rx="11" ry="11" style="stroke:#181818;stroke-width:1.0;"/><path d="M114.9688,354.1152 Q114.3906,354.412 113.75,354.5527 Q113.1094,354.7089 112.4063,354.7089 Q109.9063,354.7089 108.5781,353.0683 Q107.2656,351.412 107.2656,348.287 Q107.2656,345.162 108.5781,343.5058 Q109.9063,341.8495 112.4063,341.8495 Q113.1094,341.8495 113.75,342.0058 Q114.4063,342.162 114.9688,342.4589 L114.9688,345.1777 Q114.3438,344.5995 113.75,344.3339 Q113.1563,344.0527 112.5313,344.0527 Q111.1875,344.0527 110.5,345.1308 Q109.8125,346.1933 109.8125,348.287 Q109.8125,350.3808 110.5,351.4589 Q111.1875,352.5214 112.5313,352.5214 Q113.1563,352.5214 113.75,352.2558 Q114.3438,351.9745 114.9688,351.3964 L114.9688,354.1152 Z " fill="#000000"/><text fill="#D9B8FF" font-family="Helvetica" font-size="17" lengthAdjust="spacing" textLength="225" x="131" y="354.3598">digitalocean_load_balancer</text></g><!--class digitalocean_resource--><g id="elem_digitalocean_resource"><rect codeLine="26" fill="#3D176E" height="39.7891" id="digitalocean_resource" rx="2.5" ry="2.5" style="stroke:#000D19;stroke-width:0.5;" width="223" x="7" y="167.79"/><ellipse cx="22" cy="187.6845" fill="#ADD1B2" rx="11" ry="11" style="stroke:#181818;stroke-width:1.0;"/><path d="M24.9688,193.3252 Q24.3906,193.622 23.75,193.7627 Q23.1094,193.9189 22.4063,193.9189 Q19.9063,193.9189 18.5781,192.2783 Q17.2656,190.622 17.2656,187.497 Q17.2656,184.372 18.5781,182.7158 Q19.9063,181.0595 22.4063,181.0595 Q23.1094,181.0595 23.75,181.2158 Q24.4063,181.372 24.9688,181.6689 L24.9688,184.3877 Q24.3438,183.8095 23.75,183.5439 Q23.1563,183.2627 22.5313,183.2627 Q21.1875,183.2627 20.5,184.3408 Q19.8125,185.4033 19.8125,187.497 Q19.8125,189.5908 20.5,190.6689 Q21.1875,191.7314 22.5313,191.7314 Q23.1563,191.7314 23.75,191.4658 Q24.3438,191.1845 24.9688,190.6064 L24.9688,193.3252 Z " fill="#000000"/><text fill="#D9B8FF" font-family="Helvetica" font-size="17" lengthAdjust="spacing" textLength="181" x="41" y="193.5698">digitalocean_resource</text></g><!--class load_balancer--><g id="elem_load_balancer"><rect codeLine="29" fill="#3D176E" height="39.7891" id="load_balancer" rx="2.5" ry="2.5" style="stroke:#000D19;stroke-width:0.5;" width="157" x="265" y="167.79"/><ellipse cx="280" cy="187.6845" fill="#ADD1B2" rx="11" ry="11" style="stroke:#181818;stroke-width:1.0;"/><path d="M282.9688,193.3252 Q282.3906,193.622 281.75,193.7627 Q281.1094,193.9189 280.4063,193.9189 Q277.9063,193.9189 276.5781,192.2783 Q275.2656,190.622 275.2656,187.497 Q275.2656,184.372 276.5781,182.7158 Q277.9063,181.0595 280.4063,181.0595 Q281.1094,181.0595 281.75,181.2158 Q282.4063,181.372 282.9688,181.6689 L282.9688,184.3877 Q282.3438,183.8095 281.75,183.5439 Q281.1563,183.2627 280.5313,183.2627 Q279.1875,183.2627 278.5,184.3408 Q277.8125,185.4033 277.8125,187.497 Q277.8125,189.5908 278.5,190.6689 Q279.1875,191.7314 280.5313,191.7314 Q281.1563,191.7314 281.75,191.4658 Q282.3438,191.1845 282.9688,190.6064 L282.9688,193.3252 Z " fill="#000000"/><text fill="#D9B8FF" font-family="Helvetica" font-size="17" lengthAdjust="spacing" textLength="115" x="299" y="193.5698">load_balancer</text></g><!--class resource--><g id="elem_resource"><rect codeLine="32" fill="#3D176E" height="39.7891" id="resource" rx="2.5" ry="2.5" style="stroke:#000D19;stroke-width:0.5;" width="113" x="174" y="7"/><ellipse cx="189" cy="26.8945" fill="#ADD1B2" rx="11" ry="11" style="stroke:#181818;stroke-width:1.0;"/><path d="M191.9688,32.5352 Q191.3906,32.832 190.75,32.9727 Q190.1094,33.1289 189.4063,33.1289 Q186.9063,33.1289 185.5781,31.4883 Q184.2656,29.832 184.2656,26.707 Q184.2656,23.582 185.5781,21.9258 Q186.9063,20.2695 189.4063,20.2695 Q190.1094,20.2695 190.75,20.4258 Q191.4063,20.582 191.9688,20.8789 L191.9688,23.5977 Q191.3438,23.0195 190.75,22.7539 Q190.1563,22.4727 189.5313,22.4727 Q188.1875,22.4727 187.5,23.5508 Q186.8125,24.6133 186.8125,26.707 Q186.8125,28.8008 187.5,29.8789 Q188.1875,30.9414 189.5313,30.9414 Q190.1563,30.9414 190.75,30.6758 Q191.3438,30.3945 191.9688,29.8164 L191.9688,32.5352 Z " fill="#000000"/><text fill="#D9B8FF" font-family="Helvetica" font-size="17" lengthAdjust="spacing" textLength="71" x="208" y="32.7798">resource</text></g><!--reverse link digitalocean_resource to digitalocean_load_balancer--><g id="link_digitalocean_resource_digitalocean_load_balancer"><path codeLine="35" d="M142.3859,222.5485 C163.9159,253.0685 195.39,297.69 216.94,328.25 " fill="none" id="digitalocean_resource-backto-digitalocean_load_balancer" style="stroke:#FFAF37;stroke-width:2.0;"/><polygon fill="none" points="132.01,207.84,137.4831,226.0071,147.2888,219.0898,132.01,207.84" style="stroke:#FFAF37;stroke-width:2.0;"/></g><!--reverse link load_balancer to digitalocean_load_balancer--><g id="link_load_balancer_digitalocean_load_balancer"><path codeLine="36" d="M319.4332,222.5054 C297.7132,253.0254 265.93,297.69 244.18,328.25 " fill="none" id="load_balancer-backto-digitalocean_load_balancer" style="stroke:#FFAF37;stroke-width:2.0;"/><polygon fill="none" points="329.87,207.84,314.5447,219.0264,324.3216,225.9843,329.87,207.84" style="stroke:#FFAF37;stroke-width:2.0;"/></g><!--reverse link resource to digitalocean_resource--><g id="link_resource_digitalocean_resource"><path codeLine="37" d="M206.6141,61.7585 C185.0841,92.2785 153.61,136.9 132.06,167.46 " fill="none" id="resource-backto-digitalocean_resource" style="stroke:#FFAF37;stroke-width:2.0;"/><polygon fill="none" points="216.99,47.05,201.7112,58.2998,211.5169,65.2171,216.99,47.05" style="stroke:#FFAF37;stroke-width:2.0;"/></g><!--reverse link resource to load_balancer--><g id="link_resource_load_balancer"><path codeLine="38" d="M254.5668,61.7154 C276.2868,92.2354 308.07,136.9 329.82,167.46 " fill="none" id="resource-backto-load_balancer" style="stroke:#FFAF37;stroke-width:2.0;"/><polygon fill="none" points="244.13,47.05,249.6784,65.1943,259.4553,58.2364,244.13,47.05" style="stroke:#FFAF37;stroke-width:2.0;"/></g><!--SRC=[XP3BRi8m44Nt-GfBh96IeXOYTKEHgdQ3gj8zcjZZnCAnqTWKqSU_bvHIEU-jx_6TCrCeWGpBlJ-n4iiCoKLkfymU24gs9BB7bTMMs4HAaBDvCtoqney2QoYHFQ5-HwyuD8ctGl6TGUVOJH0z0D_bP0z6NEezWN7d28qFg9K6vvRUayeE7WCPaMOBAPjaitGo4ydy3bkO9O7qXyHnB9AqYOoE6jpxdzYe3sH9UBIrzTZIR8tufGOjAoAGR2rwpNiTNq08PN9s6xozNfp88DNUDmK8Uwne2Tg5Ovn7GkjFUrorji9q8UIy4txkWoDUdOu9bIiFsd84izKMn3O33OQVlJwZwBkB8dJsG1n3eFTd7UxkkV-QJgS39b6zVHGVAhvcJQZUy0C0]--></g></svg>

<svg xmlns="http://www.w3.org/2000/svg" width="429" height="374" viewBox="0 0 429 374"><rect width="267" height="39.789" x="97" y="328.58" fill="#3D176E" rx="2.5" ry="2.5" style="stroke:#000d19;stroke-width:.5"/><circle cx="112" cy="348.474" r="11" fill="#ADD1B2" style="stroke:#181818;stroke-width:1"/><path d="M114.969 354.115q-.578.297-1.219.438-.64.156-1.344.156-2.5 0-3.828-1.64-1.312-1.657-1.312-4.782t1.312-4.781q1.328-1.656 3.828-1.656.703 0 1.344.156.656.156 1.219.453v2.719q-.625-.579-1.219-.844-.594-.281-1.219-.281-1.344 0-2.031 1.078-.687 1.062-.687 3.156t.687 3.172q.688 1.062 2.031 1.062.625 0 1.219-.265.594-.281 1.219-.86z"/><text x="131" y="354.36" fill="#D9B8FF" font-family="Helvetica" font-size="17" textLength="225">digitalocean_load_balancer</text><rect width="223" height="39.789" x="7" y="167.79" fill="#3D176E" rx="2.5" ry="2.5" style="stroke:#000d19;stroke-width:.5"/><circle cx="22" cy="187.685" r="11" fill="#ADD1B2" style="stroke:#181818;stroke-width:1"/><path d="M24.969 193.325q-.578.297-1.219.438-.64.156-1.344.156-2.5 0-3.828-1.64-1.312-1.657-1.312-4.782t1.312-4.781q1.328-1.656 3.828-1.656.703 0 1.344.156.656.156 1.219.453v2.719q-.625-.578-1.219-.844-.594-.281-1.219-.281-1.343 0-2.031 1.078-.687 1.062-.687 3.156t.687 3.172q.688 1.062 2.031 1.062.625 0 1.219-.265.594-.281 1.219-.86z"/><text x="41" y="193.57" fill="#D9B8FF" font-family="Helvetica" font-size="17" textLength="181">digitalocean_resource</text><rect width="157" height="39.789" x="265" y="167.79" fill="#3D176E" rx="2.5" ry="2.5" style="stroke:#000d19;stroke-width:.5"/><circle cx="280" cy="187.685" r="11" fill="#ADD1B2" style="stroke:#181818;stroke-width:1"/><path d="M282.969 193.325q-.578.297-1.219.438-.64.156-1.344.156-2.5 0-3.828-1.64-1.312-1.657-1.312-4.782t1.312-4.781q1.328-1.656 3.828-1.656.703 0 1.344.156.656.156 1.219.453v2.719q-.625-.578-1.219-.844-.594-.281-1.219-.281-1.344 0-2.031 1.078-.687 1.062-.687 3.156t.687 3.172q.688 1.062 2.031 1.062.625 0 1.219-.265.594-.281 1.219-.86z"/><text x="299" y="193.57" fill="#D9B8FF" font-family="Helvetica" font-size="17" textLength="115">load_balancer</text><rect width="113" height="39.789" x="174" y="7" fill="#3D176E" rx="2.5" ry="2.5" style="stroke:#000d19;stroke-width:.5"/><circle cx="189" cy="26.895" r="11" fill="#ADD1B2" style="stroke:#181818;stroke-width:1"/><path d="M191.969 32.535q-.578.297-1.219.438-.64.156-1.344.156-2.5 0-3.828-1.64-1.312-1.657-1.312-4.782t1.312-4.781q1.328-1.656 3.828-1.656.703 0 1.344.156.656.156 1.219.453v2.719q-.625-.578-1.219-.844-.594-.281-1.219-.281-1.344 0-2.031 1.078-.687 1.062-.687 3.156t.687 3.172q.688 1.062 2.031 1.062.625 0 1.219-.265.594-.281 1.219-.86z"/><text x="208" y="32.78" fill="#D9B8FF" font-family="Helvetica" font-size="17" textLength="71">resource</text><path fill="none" d="M142.386 222.549c21.53 30.52 53.004 75.141 74.554 105.701m-84.93-120.41 5.473 18.167 9.806-6.917zm187.423 14.665c-21.72 30.52-53.503 75.185-75.253 105.745m85.69-120.41-15.325 11.186 9.777 6.958zM206.614 61.759c-21.53 30.52-53.004 75.141-74.554 105.701m84.93-120.41L201.711 58.3l9.806 6.917zm37.577 14.665c21.72 30.52 53.503 75.185 75.253 105.745M244.13 47.05l5.548 18.144 9.777-6.958z" style="stroke:#ffaf37;stroke-width:2"/></svg>
